src/assets/icons/icon-location.svg

<svg width="85" height="129" viewBox="0 0 85 129" fill="none" xmlns="http://www.w3.org/2000/svg">
<path d="M31.7333 0.9386C24.8 2.67193 13.7333 9.47193 9.73333 14.2719C2.13333 23.4719 0 30.0053 0 43.0719C0 56.8053 2.66667 66.6719 11.6 84.4053C17.3333 96.1386 29.8667 114.939 37.2 123.205L41.8667 128.405L46.6667 123.072C60.9333 107.072 77.2 77.3386 82.1333 58.1386C88.1333 34.4053 80.8 15.2053 62 5.20527C53.3333 0.671933 40.1333 -1.32807 31.7333 0.9386ZM53.0667 34.2719C56.5333 37.8719 57.2 39.4719 57.2 45.0719C57.2 50.8053 56.5333 52.2719 52.8 56.0053C49.0667 59.7386 47.6 60.4053 41.8667 60.4053C36.1333 60.4053 34.6667 59.7386 30.9333 56.0053C27.2 52.2719 26.5333 50.8053 26.5333 45.2053C26.5333 38.2719 29.8667 32.9386 35.8667 30.2719C40.8 28.1386 48.6667 29.8719 53.0667 34.2719Z" fill="#767676"/>
</svg>

<svg width="85" height="129" fill="none" xmlns="http://www.w3.org/2000/svg"><path d="M31.733.939c-6.933 1.733-18 8.533-22 13.333C2.133 23.472 0 30.005 0 43.072c0 13.733 2.667 23.6 11.6 41.333 5.733 11.734 18.267 30.534 25.6 38.8l4.667 5.2 4.8-5.333c14.266-16 30.533-45.733 35.466-64.933C88.133 34.405 80.8 15.205 62 5.205 53.333.672 40.133-1.328 31.733.94Zm21.334 33.333c3.466 3.6 4.133 5.2 4.133 10.8 0 5.733-.667 7.2-4.4 10.933-3.733 3.734-5.2 4.4-10.933 4.4-5.734 0-7.2-.666-10.934-4.4-3.733-3.733-4.4-5.2-4.4-10.8 0-6.933 3.334-12.266 9.334-14.933 4.933-2.133 12.8-.4 17.2 4Z" fill="#767676"/></svg>
